images/icons/jQuery.svg

<svg xmlns="http://www.w3.org/2000/svg" viewBox="0 -198 512 512">
  <g fill="none" fill-rule="evenodd">
    <path fill="#1A1918" d="m489.718192 8.64613026 21.420628.11770116S471.313656 62.7278468 468.06216 67.1259464c-1.056366 1.4241838-2.661026 2.9601838-3.474144 4.864-2.056828 4.7865134-4.168584 15.2854558-4.168584 15.2854558l-19.599202.0971036s3.04944-10.9432644 2.923892-16.7724138c-.110834-5.0925364-2.710068-10.178207-4.168582-15.285456-1.473226-5.1690422-3.474146-15.285456-3.474146-15.285456h20.149456l2.778728 11.1168736 30.688614-42.49992334"/>
    <path fill="#1A1918" d="M449.157394 20.0268506c3.952798 2.3834482 6.378422 15.528705 6.378422 15.528705s-20.684016.3050422-31.940168.3050422h-9.72702l-11.81131 51.4148044h-18.064184s11.24144-55.8746972 13.895602-66.0048428c.86118-3.2789579 5.891924-2.7169349 14.388966-2.7169349h13.56898c8.76187 0 19.00285-1.1181609 23.310712 1.4732261m-84.09747 25.0399386s.563004-3.3005364-1.910682-7.1219004c-2.111756-3.25836-4.063632-4.0155708-9.62207-4.18918-15.695448-.493364-15.390406 11.1374712-15.390406 11.1374712l26.923158.1736092Zm17.022528-13.3188658c2.300076 8.2959694-2.084292 27.791203-2.084292 27.791203s-22.893854-.3825286-35.43393 0c-3.89885.118682-8.566682-.4237242-9.72702 1.3898544-1.633102 2.5423448.596354 6.4549272 2.486438 8.1076476 2.17551 1.903816 6.41275 2.1196014 7.935018 2.3138084 10.178208 1.292751 31.481134.3334866 31.481134.3334866l-3.68993 16.3408428s-30.10403 1.5085364-45.16095-2.0842912c-2.972936-.7081684-5.75951-2.1392182-7.642728-4.1685822-.513962-.5551572-.959264-1.3123678-1.445762-1.9656092-.388414-.5218086-1.520308-2.2373028-2.028384-3.5928276-3.438836-9.1640154.403126-26.7211036 4.168582-36.1283678.437456-1.0906974.986728-2.472705 1.564444-3.6477548.721902-1.4653794 1.332966-3.1190806 1.909702-3.9949732.388414-.6041992.869026-.993594 1.272154-1.5634636.464918-.6738392 1.006344-1.3270806 1.507554-1.9097012 1.388874-1.6125058 2.96607-2.7522452 4.86302-4.1685824 6.273472-4.6972566 17.626728-8.3450115 31.265348-6.9482912 5.134714.5276935 12.889258 2.3618698 16.67531 7.642728 1.014192 1.4104522 1.514422 4.2097778 2.084292 6.2528736ZM299.22869 18.4908506l17.515892-.1039694s-9.761348 46.3075556-14.736184 68.888521h-20.149456c-14.082942 0-26.624 1.7439388-31.959784-8.3381454-5.175908-9.7888124-.236384-25.887387 2.08429-36.8237856 1.63997-7.7398314 5.093518-23.5598467 5.093518-23.5598467l18.147556-.1667433s-5.127848 24.6299464-7.261182 36.9277548c-.764076 4.4049656-2.34029 8.5529502-.694436 11.8113104 1.563464 3.0994636 3.751724 3.321134 10.421456 3.4741456 2.112736.049042 9.032582 0 9.032582 0l12.505748-52.1092414m-81.984736 33.3496398c1.834176-6.5167202 4.508934-13.5827126 4.168582-19.4540382-.367816-6.2803372-5.633962-11.9986514-9.031602-13.200184-10.234114-3.6134253-19.814988 1.4379158-23.62262 5.557456-4.926774 5.3367662-6.594207 11.569042-8.338145 20.1494558-1.298636 6.3705748-2.36187 13.0962146 0 18.064184 4.182314 8.7824674 17.223601 6.8649196 31.265349 6.9482912 2.08429-5.5859004 3.807632-11.8603526 5.558436-18.0651648Zm24.318038-25.7069118c2.00092 14.5488428-5.676138 30.6062222-10.963862 44.5704828 5.391694.486498 10.116414-.075525 10.456766.3266206.354084.5218084-3.613424 16.6684444-4.996414 16.7096398-4.279416.1118162-18.459462.2295172-24.372964.2295172-19.294162 0-37.344614 1.2574406-46.549825-8.3371646-3.737992-3.8978698-6.322513-10.5823142-6.948291-15.285456-1.042636-7.8516476.263847-16.4948352 2.084291-23.6226206 1.646836-6.4343296 3.758591-12.506728 6.948292-18.0651648C175.327632 8.50685058 189.432153-1.99797701 213.075372.42666667c4.58544.47276628 11.1718 2.48055173 15.285456 4.86301915.284444.16772414 1.279018.95926438 1.507556 1.09854406 5.558436 3.53691954 10.623508 11.97805362 11.693608 19.74534872Zm-85.368643-7.5593564c-1.167203 5.3151878-2.334406 11.339525-3.564383 16.5919388h-19.454039c1.507556-5.8222836 2.661027-11.6102376 4.168583-16.6753104 6.22541 0 12.013364.0833716 18.849839.0833716M132.48049 40.02918h18.758621c-2.452107 13.5768276-7.30826 35.4761074-11.115893 50.719387-2.383448 9.539678-3.974375 16.501701-10.422436 21.53833-.576736.452168-.909242.237364-1.388874.695417-1.188782 1.132874-6.684444 2.446222-9.727019 2.778728-4.947372.53554-10.540138.06964-16.619402-.054927 1.590927-5.815418 3.390774-12.798038 4.808092-18.0092568 14.819555 1.7929808 15.195218-12.2144368 18.064183-25.7069118 1.660568-7.7957396 6.691311-28.8338392 7.642728-31.9607664"/>
    <g fill="#21609B">
      <path d="m88.7084138 75.4640918-.4021456 1.0416552c-6.8511878 13.3394636-18.9891188 21.5245976-36.3029578 21.8855478-8.0939158.1667434-15.8062836-1.9097012-20.8438928-4.1685824C20.286774 89.3381148 11.1423755 80.2790496 6.14792338 70.6000918-1.01615326 56.725088-2.30792338 37.424061 12.5881379 23.007632c.2295173 0-1.8067126 3.1259463-1.5771954 3.1259463l-.4099923 1.3339464C-.13339464 61.0741454 32.9376858 89.873655 65.0857932 86.5799844c7.7260996-.7915402 17.5786666-5.0228964 23.6226206-11.1158926"/>
      <path d="M69.2543754 61.5675094c8.0880308.055908 16.5360308-3.7242606 21.5383296-9.0316016-4.376521 11.1100078-17.0490116 18.251525-34.0440766 15.9798928-14.2290882-1.9038162-27.7843372-16.2231418-29.1810576-30.570912-1.0210574-10.4420536 2.6188506-16.6743294 8.6157242-24.23368574-2.0842912 3.95377778-2.8630804 7.00321834-3.0572874 8.94822984-2.278498 22.5878315 18.0435862 38.7903755 36.1283678 38.9080767"/>
      <path d="M89.980567 33.5124596c-1.2574406 2.8836782-8.497042 8.3302988-11.6936092 9.0110038-12.6587586 2.6963372-20.766406-3.3064214-25.012475-10.1370114-.6316628-1.0210576-1.798866-3.8066514-2.0077854-4.5158009-1.6468354-5.5996321-.8896246-14.0692107 4.0234176-18.45357851-1.480092 4.16858237-1.6958774 9.01100383-.9170882 12.15852871.4717854 1.9038161 1.9097012 5.2259311 3.3485978 7.3161073 2.6188504 3.8076322 4.2794176 4.732567 7.6427278 6.7540842 1.5144216.9102224 3.1396782 1.6399694 3.8419618 1.8410422 3.1887202.9376858 9.921226 3.4113716 20.7742528-3.9743754"/>
    </g>
  </g>
</svg>

<?xml version="1.0" encoding="UTF-8" standalone="no"?>
<svg width="512px" height="512px" viewBox="0 -198 512 512" version="1.1" xmlns="http://www.w3.org/2000/svg" xmlns:xlink="http://www.w3.org/1999/xlink">
    <defs></defs>
    <g stroke="none" stroke-width="1" fill="none" fill-rule="evenodd">
        <g>
            <path d="M489.718192,8.64613026 L511.13882,8.76383142 C511.13882,8.76383142 471.313656,62.7278468 468.06216,67.1259464 C467.005794,68.5501302 465.401134,70.0861302 464.588016,71.9899464 C462.531188,76.7764598 460.419432,87.2754022 460.419432,87.2754022 L440.82023,87.3725058 C440.82023,87.3725058 443.86967,76.4292414 443.744122,70.600092 C443.633288,65.5075556 441.034054,60.421885 439.57554,55.314636 C438.102314,50.1455938 436.101394,40.02918 436.101394,40.02918 L456.25085,40.02918 L459.029578,51.1460536 L489.718192,8.64613026" fill="#1A1918"></path>
            <path d="M449.157394,20.0268506 C453.110192,22.4102988 455.535816,35.5555556 455.535816,35.5555556 C455.535816,35.5555556 434.8518,35.8605978 423.595648,35.8605978 L413.868628,35.8605978 L402.057318,87.2754022 L383.993134,87.2754022 C383.993134,87.2754022 395.234574,31.400705 397.888736,21.2705594 C398.749916,17.9916015 403.78066,18.5536245 412.277702,18.5536245 L425.846682,18.5536245 C434.608552,18.5536245 444.849532,17.4354636 449.157394,20.0268506" fill="#1A1918"></path>
            <path d="M365.059924,45.0667892 C365.059924,45.0667892 365.622928,41.7662528 363.149242,37.9448888 C361.037486,34.6865288 359.08561,33.929318 353.527172,33.7557088 C337.831724,33.2623448 338.136766,44.89318 338.136766,44.89318 L365.059924,45.0667892 L365.059924,45.0667892 Z M382.082452,31.7479234 C384.382528,40.0438928 379.99816,59.5391264 379.99816,59.5391264 C379.99816,59.5391264 357.104306,59.1565978 344.56423,59.5391264 C340.66538,59.6578084 335.997548,59.1154022 334.83721,60.9289808 C333.204108,63.4713256 335.433564,67.383908 337.323648,69.0366284 C339.499158,70.9404444 343.736398,71.1562298 345.258666,71.3504368 C355.436874,72.6431878 376.7398,71.6839234 376.7398,71.6839234 L373.04987,88.0247662 C373.04987,88.0247662 342.94584,89.5333026 327.88892,85.940475 C324.915984,85.2323066 322.12941,83.8012568 320.246192,81.7718928 C319.73223,81.2167356 319.286928,80.459525 318.80043,79.8062836 C318.412016,79.284475 317.280122,77.5689808 316.772046,76.213456 C313.33321,67.0494406 317.175172,49.4923524 320.940628,40.0850882 C321.378084,38.9943908 321.927356,37.6123832 322.505072,36.4373334 C323.226974,34.971954 323.838038,33.3182528 324.414774,32.4423602 C324.803188,31.838161 325.2838,31.4487662 325.686928,30.8788966 C326.151846,30.2050574 326.693272,29.551816 327.194482,28.9691954 C328.583356,27.3566896 330.160552,26.2169502 332.057502,24.800613 C338.330974,20.1033564 349.68423,16.4556015 363.32285,17.8523218 C368.457564,18.3800153 376.212108,20.2141916 379.99816,25.4950498 C381.012352,26.905502 381.512582,29.7048276 382.082452,31.7479234 L382.082452,31.7479234 L382.082452,31.7479234 Z" fill="#1A1918"></path>
            <path d="M299.22869,18.4908506 L316.744582,18.3868812 C316.744582,18.3868812 306.983234,64.6944368 302.008398,87.2754022 L281.858942,87.2754022 C267.776,87.2754022 255.234942,89.019341 249.899158,78.9372568 C244.72325,69.1484444 249.662774,53.0498698 251.983448,42.1134712 C253.623418,34.3736398 257.076966,18.5536245 257.076966,18.5536245 L275.224522,18.3868812 C275.224522,18.3868812 270.096674,43.0168276 267.96334,55.314636 C267.199264,59.7196016 265.62305,63.8675862 267.268904,67.1259464 C268.832368,70.22541 271.020628,70.4470804 277.69036,70.600092 C279.803096,70.649134 286.722942,70.600092 286.722942,70.600092 L299.22869,18.4908506" fill="#1A1918"></path>
            <path d="M217.243954,51.8404904 C219.07813,45.3237702 221.752888,38.2577778 221.412536,32.3864522 C221.04472,26.106115 215.778574,20.3878008 212.380934,19.1862682 C202.14682,15.5728429 192.565946,20.624184 188.758314,24.7437242 C183.83154,30.0804904 182.164107,36.3127662 180.420169,44.89318 C179.121533,51.2637548 178.058299,57.9893946 180.420169,62.957364 C184.602483,71.7398314 197.64377,69.8222836 211.685518,69.9056552 C213.769808,64.3197548 215.49315,58.0453026 217.243954,51.8404904 L217.243954,51.8404904 L217.243954,51.8404904 Z M241.561992,26.1335786 C243.562912,40.6824214 235.885854,56.7398008 230.59813,70.7040614 C235.989824,71.1905594 240.714544,70.6285364 241.054896,71.030682 C241.40898,71.5524904 237.441472,87.6991264 236.058482,87.7403218 C231.779066,87.852138 217.59902,87.969839 211.685518,87.969839 C192.391356,87.969839 174.340904,89.2272796 165.135693,79.6326744 C161.397701,75.7348046 158.81318,69.0503602 158.187402,64.3472184 C157.144766,56.4955708 158.451249,47.8523832 160.271693,40.7245978 C161.918529,34.2902682 164.030284,28.2178698 167.219985,22.659433 C175.327632,8.50685058 189.432153,-1.99797701 213.075372,0.426666666 C217.660812,0.89943295 224.247172,2.9072184 228.360828,5.28968582 C228.645272,5.45740996 229.639846,6.2489502 229.868384,6.38822988 C235.42682,9.92514942 240.491892,18.3662835 241.561992,26.1335786 L241.561992,26.1335786 L241.561992,26.1335786 Z" fill="#1A1918"></path>
            <path d="M156.193349,18.5742222 C155.026146,23.88941 153.858943,29.9137472 152.628966,35.166161 L133.174927,35.166161 C134.682483,29.3438774 135.835954,23.5559234 137.34351,18.4908506 C143.56892,18.4908506 149.356874,18.5742222 156.193349,18.5742222" fill="#1A1918"></path>
            <path d="M132.48049,40.02918 L151.239111,40.02918 C148.787004,53.6060076 143.930851,75.5052874 140.123218,90.748567 C137.73977,100.288245 136.148843,107.250268 129.700782,112.286897 C129.124046,112.739065 128.79154,112.524261 128.311908,112.982314 C127.123126,114.115188 121.627464,115.428536 118.584889,115.761042 C113.637517,116.296582 108.044751,115.830682 101.965487,115.706115 C103.556414,109.890697 105.356261,102.908077 106.773579,97.6968582 C121.593134,99.489839 121.968797,85.4824214 124.837762,71.9899464 C126.49833,64.1942068 131.529073,43.1561072 132.48049,40.02918" fill="#1A1918"></path>
            <g transform="translate(0.000000, 8.827586)" fill="#21609B">
                <path d="M88.7084138,66.6365058 L88.3062682,67.678161 C81.4550804,81.0176246 69.3171494,89.2027586 52.0033104,89.5637088 C43.9093946,89.7304522 36.1970268,87.6540076 31.1594176,85.3951264 C20.286774,80.5105288 11.1423755,71.4514636 6.14792338,61.7725058 C-1.01615326,47.897502 -2.30792338,28.596475 12.5881379,14.180046 C12.8176552,14.180046 10.7814253,17.3059923 11.0109425,17.3059923 L10.6009502,18.6399387 C-0.133394636,52.2465594 32.9376858,81.046069 65.0857932,77.7523984 C72.8118928,76.9608582 82.6644598,72.729502 88.7084138,66.6365058"></path>
                <path d="M69.2543754,52.7399234 C77.3424062,52.7958314 85.7904062,49.0156628 90.792705,43.7083218 C86.416184,54.8183296 73.7436934,61.9598468 56.7486284,59.6882146 C42.5195402,57.7843984 28.9642912,43.4650728 27.5675708,29.1173026 C26.5465134,18.675249 30.1864214,12.4429732 36.183295,4.88361686 C34.0990038,8.83739464 33.3202146,11.8868352 33.1260076,13.8318467 C30.8475096,36.4196782 51.1695938,52.6222222 69.2543754,52.7399234"></path>
                <path d="M89.980567,24.6848736 C88.7231264,27.5685518 81.483525,33.0151724 78.2869578,33.6958774 C65.6281992,36.3922146 57.5205518,30.389456 53.2744828,23.558866 C52.64282,22.5378084 51.4756168,19.7522146 51.2666974,19.0430651 C49.619862,13.443433 50.3770728,4.9738544 55.290115,0.58948659 C53.810023,4.75806896 53.5942376,9.60049042 54.3730268,12.7480153 C54.8448122,14.6518314 56.282728,17.9739464 57.7216246,20.0641226 C60.340475,23.8717548 62.0010422,24.7966896 65.3643524,26.8182068 C66.878774,27.7284292 68.5040306,28.4581762 69.2063142,28.659249 C72.3950344,29.5969348 79.1275402,32.0706206 89.980567,24.6848736"></path>
            </g>
        </g>
    </g>
</svg>
